X:468010
T:Paddy's Leather Breaches
H:
C: Trad 
B: Scots Guards I
O:Kevin Fraser
Z:Kevin Fraser
Q:3/8=120
K:HP
M:6/8
L:1/8
R:Jig
U: R = ///
U: r = //
U: V = !accent!
V:M gstem=up stem=down name="Melody"
V:H gstem=up stem=down name="Harmony"
V:C gstem=up stem=down name="C-Harmony"
V:S gstem=up stem=down dyn=up stafflines=1 clef=perc middle=G name="Snare" sname="Snare"
V:B gstem=up stem=down clef=none dyn=up name="Bass"
V:T gstem=up stem=down clef=none dyn=up name="Tenor"
V:BB gstem=up stem=down name="Brass Bass" sname="ABCD-C" transpose=-1  octave=-1 clef=bass
V:BC gstem=up stem=down name="Brass Chord" sname="ABCD-D" transpose=-1
V:BD gstem=up stem=down name="Brass Chord 2" sname="ABCD-B" transpose=-1
V:P gstem=up stem=down name="Piano" octave=-1
I:MIDI=program 110
%%MIDI gracedivider 4
% %MIDI gchord
%%MIDI beatstring 
%%score {M}
V:M
%%MIDI program 110
%%MIDI vol 100
|:          {g}B{d}B{e}B {gfg}f2e        | {g}fB{G}B {gfg}f2e | {g}B{d}B{e}B  {gfg}f2e    | {g}c{d}A{e}A  {g}fec | $
V:M
            {g}B{d}B{e}B {gfg}f2e        | {g}fB{G}B {gfg}f2e | {g}fga        {ef}e2a     |    c{d}A{e}A  {g}fec :| $
V:M
|:          {ag}a3       {gfg}f2e        | {g}fB{G}B {gfg}f2e | {ag}a3        {gfg}f2e    | {g}c{d}A{e}A  {g}fec | $
V:M
            {ag}a3       {gfg}f2e        | {g}fB{G}B {gfg}f2e | {g}fga        {ef}e2a     |    c{d}A{e}A  {g}fec :| $
V:M
|:          {g}B{d}B{e}B {g}c{d}c{e}c    | {g}B{d}B{e}B {g}fec | {g}B{d}B{e}B {g}c{d}c{e}c    | {g}A{d}A{e}A {g}fec | $
V:M
            {g}B{d}B{e}B {g}c{d}c{e}c    | {g}B{d}ce  {gfg}f2e | {g}fga        efa            |    c{d}A{e}A  {g}fec :| $
V:M
|:          aga          {gfg}f2e        | {g}fB{G}B {gfg}f2e | aga           {gfg}f2e    | {g}c{d}A{e}A  {g}fec | $
V:M
            aga          {gfg}f2e        | {g}fB{G}B {gfg}f2e | {g}fga        efa         |    c{d}A{e}A  {g}fec :| $
V:S
%%MIDI channel 10
%%MIDI drum on
%%MIDI program 1
%%MIDI vol 100
[V:S]|: {A}cAc {c}A2{c}A             | cA{A}c {c}A2A           | (rcc)A       c/A/c/A/!>!c | Ac{c}A {A}c2A |
[V:S]{A}cAc {c}A2{c}A             | cA{A}c {c}A2A           | !>!(Rc2!v!A) !>!(Rc2!v!A) | cA{A}c  {c}A2A :| 
[V:S]|: {A}cAc Ac{c}A                | cA{A}c {c}A2A           | (rcc)A       c/A/c/A/!>!c | Ac{c}A {A}c2A |
[V:S]{A}cAc Ac{c}A                | cA{A}c {c}A2A           | !>!(Rc2!v!A) !>!(Rc2!v!A) | cA{A}c  {c}A2A :| 
[V:S]|: c/A/c/A/c/A/ !>!c/A/c/A/c/A/ | c/A/c/A/c    !>!AcA     | (rcc)A       c/A/c/A/c    | Ac{c}A  {A}c2A |
[V:S]c/A/c/A/c/A/ !>!c/A/c/A/c/A/ | c/A/c/A/c    !>!AcA     | !>!(Rc2!v!A) !>!(Rc2!v!A) | cA{A}c  {c}A2A :| 
[V:S]|: cc/A/c/A/    !>!cAc          | A(rcc)       !>!AcA     | (rcc)A       c/A/c/A/c    | Ac{c}A  {A}c2A |  
[V:S]cc/A/c/A/    !>!cAc          | A(rcc)       !>!AcA    | !>!(Rc2!v!A) !>!(Rc2!v!A) | cA{A}c  {c}A2A :| 
V:B
%%MIDI channel 10
%%MIDI drum on
%%MIDI program 2
%%MIDI vol 100
[V:B][ !>!c3 A3 | !>!c3 A3 | !>!c3 A3 | !>!c3 A3 | $
[V:B]  !>!c3 A3 | !>!c3 A3 | !>!c3 A3 | !>!c3 A3 |] $
[V:B][ !>!c3 A3 | !>!c3 A3 | !>!c3 A3 | !>!c3 A3 | $
[V:B]  !>!c3 A3 | !>!c3 A3 | !>!c3 A3 | !>!c3 A3 |] $
[V:B][ !>!c3 A3 | !>!c3 A3 | !>!c3 A3 | !>!c3 A3 | $
[V:B]  !>!c3 A3 | !>!c3 A3 | !>!c3 A3 | !>!c3 A3 |] $
W: The snare 3rd and 4th parts are identical to 
W:   Glasgow Police Pipers parts 1 and 2; and
W:   Banjo Breakdown parts 3 and 4.
W: except for the flams in the last bar.



